X:039 
T:Derrymore Reel, The 
S:Donnelly < Jones
F:file ID: cre.4/039derry
B:CRE4.164 (Ril an Doire Mhoir)
L:1/8
Q:180
M:4/4
R:reel
K:D
F2AF dFAF|DFAF GFEG|FDFA (3Bcd eg|fdec dBAG|
F2 AF dFAF|DFAF GFEG|FDFA (3Bcd eg|(3fga ec dcBA ||
a2 fg adfg|a2 fg afbf|a2 fg afbf|gfed cdef|
a2 fg adfg|a2 fg afbf|abaf gage|fgfe dBAG ||\
"last time" D8|]

%%%


